html/images/os/adva.svg

<svg viewBox="0 0 320 320" xmlns="http://www.w3.org/2000/svg"><g fill="#e80707"><path d="m76.25 41.57a106.34 106.34 0 0 0 -22.74 58.08h64.63a43.93 43.93 0 0 1 3.86-10.25z"/><path d="m160 1a106.29 106.29 0 0 0 -66.5 23.26l45.33 47.43a44 44 0 0 1 65.14 28h62.52a106.82 106.82 0 0 0 -106.49-98.69z"/><path d="m122.7 131.3a48.34 48.34 0 0 1 -3.07-7h-65.09a116.68 116.68 0 0 0 23.46 54.61z"/><path d="m202.48 124.28c-6.17 17.54-22.36 30.09-41.42 30.09a42.54 42.54 0 0 1 -20.92-5.51l-44.48 46.14a103.87 103.87 0 0 0 64.34 22.35c53.2 0 97.29-40.31 105.46-93.07z"/></g><g fill="#004588"><path d="m37.24 250.6h25.31l17.45 47.63h-68.07zm-.7 39.72h20.15l-8.53-24.27z"/><path d="m31.23 304.03h-22.3l-7.84 14.34h23.15z"/><path d="m81.86 304.03h-22.3l3.64 14.34h23.84z"/><path d="m268.86 250.6h25.31l17.49 47.62h-68.11zm-.7 39.72h20.14l-8.53-24.27z"/><path d="m262.85 304.03h-22.3l-7.83 14.34h23.14z"/><path d="m313.48 304.03h-22.3l3.64 14.34h23.84z"/><path d="m184.98 303.48h36.85l-7.48 15.05h-24.18z"/><path d="m226.63 250.6h21.66l-24.24 47.93h-18.9z"/><path d="m183.3 298.53h19.98l-14.63-47.93h-21.35z"/><path d="m164.94 276.83a25.94 25.94 0 0 0 -5-15.39c-8.21-11.32-22.9-10.84-28.15-10.84h-35.45v47.62h20.77v-32.72h14.69c10 0 11.72 12.42 11.64 16.26-.21 11.33-4.09 16.47-4.09 16.47h23.18s2.69-11.79 2.41-21.4z"/></g><path d="m131.79 250.6c0 13.29 14.29 24 31.94 24" fill="none"/><path d="m133.19 318.53h-36.85v-14.53h62.9s-10.24 14.53-26.05 14.53z" fill="#004588"/><path d="m0 0h320v320h-320z" fill="none"/></svg>

<svg id="Layer_1" data-name="Layer 1" xmlns="http://www.w3.org/2000/svg" viewBox="0 0 320 320"><defs><style>.cls-1{fill:#e80707;}.cls-2{fill:#004588;}.cls-3{fill:none;}</style></defs><title>aArtboard 1</title><path class="cls-1" d="M76.25,41.57A106.34,106.34,0,0,0,53.51,99.65h64.63A43.93,43.93,0,0,1,122,89.4Z"/><path class="cls-1" d="M160,1A106.29,106.29,0,0,0,93.5,24.26l45.33,47.43a44,44,0,0,1,65.14,28h62.52A106.82,106.82,0,0,0,160,1Z"/><path class="cls-1" d="M122.7,131.3a48.34,48.34,0,0,1-3.07-7H54.54A116.68,116.68,0,0,0,78,178.91Z"/><path class="cls-1" d="M202.48,124.28c-6.17,17.54-22.36,30.09-41.42,30.09a42.54,42.54,0,0,1-20.92-5.51L95.66,195A103.87,103.87,0,0,0,160,217.35c53.2,0,97.29-40.31,105.46-93.07Z"/><path class="cls-2" d="M37.24,250.6H62.55L80,298.23H11.93Zm-.7,39.72H56.69l-8.53-24.27Z"/><polygon class="cls-2" points="31.23 304.03 8.93 304.03 1.09 318.37 24.24 318.37 31.23 304.03"/><polygon class="cls-2" points="81.86 304.03 59.56 304.03 63.2 318.37 87.04 318.37 81.86 304.03"/><path class="cls-2" d="M268.86,250.6h25.31l17.49,47.62H243.55Zm-.7,39.72h20.14l-8.53-24.27Z"/><polygon class="cls-2" points="262.85 304.03 240.55 304.03 232.72 318.37 255.86 318.37 262.85 304.03"/><polygon class="cls-2" points="313.48 304.03 291.18 304.03 294.82 318.37 318.66 318.37 313.48 304.03"/><polygon class="cls-2" points="184.98 303.48 221.83 303.48 214.35 318.53 190.17 318.53 184.98 303.48"/><polygon class="cls-2" points="226.63 250.6 248.29 250.6 224.05 298.53 205.15 298.53 226.63 250.6"/><polygon class="cls-2" points="183.3 298.53 203.28 298.53 188.65 250.6 167.3 250.6 183.3 298.53"/><path class="cls-2" d="M164.94,276.83a25.94,25.94,0,0,0-5-15.39c-8.21-11.32-22.9-10.84-28.15-10.84H96.34v47.62h20.77V265.5h14.69c10,0,11.72,12.42,11.64,16.26-.21,11.33-4.09,16.47-4.09,16.47h23.18S165.22,286.44,164.94,276.83Z"/><path class="cls-3" d="M131.79,250.6c0,13.29,14.29,24,31.94,24"/><path class="cls-2" d="M133.19,318.53H96.34V304h62.9S149,318.53,133.19,318.53Z"/><rect class="cls-3" width="320" height="320"/></svg>
